X: 26
T: Rolling In The Ryegrass
Z: Will The Whistler
S: https://thesession.org/tunes/87#setting53206
R: reel
M: 4/4
L: 1/8
K: Dmaj
|:ABAF DFAF|G2BG dGBG|ABAF DFAF|GBAF (3EGE D2:|
|:ABde ~f3 d|~g3 e fedB|ABde ~f3 g|afdf e2d2:|

%-------------------- TUNE SEPARATOR --------------------%

